X:590
T:Love's Young Dream.
T:aisling og an grai.d.
N:"Boldly."
B:O'Neill's 590
Z:Transcribed by John B. Walsh (walsh@math.ubc.ca)
Z:Similar to the Shan Van Vogt
M:6/8
L:1/8
<START_ANN> %Q:80 <END_ANN>
K:G
d/c/|B2 G A2E|G2 E AEG|A3 A3|A3-A2d/c/|
B2 G A2E|G2 E AEG|G3 G3|G3-G2||
A|B2 c d2 d|e2 f g2e|d2 B A2 G|BA3-A2 d/c/|
B2 G A2 E|G2 E DEF|A3 A3|A3-A2 d/c/|
B G2 A2 E|G2 E DEF|G3 G3|G3-G2||
